X: 1
T: Soroc  [C]
O: Romania
M: 2/4
L: 1/16
B: Pinewoods International Collection
K: Cmix
"G"\
|: "Gm"BAG2 G2GG | G^FGA "C"GGGE | "F"F2G2 AAAF | AAAF "D7"A^GAc |
|  "Gm"BAG2 G2GG | G^FGA "C"GG=FE | "Dm"DEFF "G7"FEDE | "C"C4 z4 :|
"A"\
|: "G7"GGFE DEFF | FEFG "C"EEEC | DEFF FE^DE | "C"GG^FG AFG2 |
|  "G7"GGFE DEFF | FEFG "F"AGFE | "G7"GEFF FEDE |1 "C"C2CD EFGA :|2 C4 z2 ||
"B"\
|: GG \
| "C7"G^FGA BGAA | "F"AFGE F2GA | "C7"BGAA AFGE | "F"FFF2 ccc2 |
| "C7"G^FGA BGAA | "F"AFGE F2EF | "G7"GEFF FEDE |1 "C"C4 z2 :|2 "C"C2z2 HC2Z2 |]

%%sep 1 1 500
%%sep 1 1 500

